img/Ico/Link.svg

<svg width="22" height="22" viewBox="0 0 22 22" fill="none" xmlns="http://www.w3.org/2000/svg">
<path d="M12.3857 6.19239C11.7334 6.00483 11.3096 5.03037 11.7896 4.55041L12.4137 3.92628C13.9758 2.36418 16.5085 2.36418 18.0706 3.92628C19.6327 5.48838 19.6327 8.02104 18.0706 9.58314L13.8279 13.8258C12.2658 15.3879 9.73316 15.3879 8.17107 13.8258C7.78054 13.4353 7.78054 12.8021 8.17107 12.4116C8.56159 12.021 9.19476 12.021 9.58528 12.4116C10.3663 13.1926 11.6327 13.1926 12.4137 12.4116L16.6563 8.16892C17.4374 7.38787 17.4374 6.12154 16.6563 5.3405C15.8753 4.55945 14.609 4.55945 13.8279 5.3405L13.1536 6.01484C12.955 6.21344 12.6556 6.26999 12.3857 6.19239V6.19239ZM9.6133 15.8023C10.2656 15.9899 10.6894 16.9643 10.2094 17.4443L9.58528 18.0684C8.02318 19.6305 5.49052 19.6305 3.92843 18.0684C2.36633 16.5063 2.36633 13.9737 3.92843 12.4116L8.17107 8.16892C9.73316 6.60683 12.2658 6.60683 13.8279 8.16892C14.2184 8.55945 14.2184 9.19261 13.8279 9.58314C13.4374 9.97366 12.8042 9.97366 12.4137 9.58314C11.6327 8.80209 10.3663 8.80209 9.58528 9.58314L5.34264 13.8258C4.56159 14.6068 4.56159 15.8732 5.34264 16.6542C6.12369 17.4353 7.39002 17.4353 8.17107 16.6542L8.84541 15.9799C9.04401 15.7813 9.34338 15.7247 9.6133 15.8023V15.8023Z" fill="black"/>
</svg>

<svg width="22" height="22" fill="none" xmlns="http://www.w3.org/2000/svg"><path d="M12.386 6.192c-.653-.187-1.076-1.162-.596-1.642l.624-.624a4 4 0 0 1 5.657 5.657l-4.243 4.243a4 4 0 0 1-5.657 0 1 1 0 1 1 1.414-1.414 2 2 0 0 0 2.829 0l4.242-4.243a2 2 0 1 0-2.828-2.829l-.674.675a.78.78 0 0 1-.768.177zm-2.773 9.61c.653.188 1.076 1.162.596 1.642l-.624.624a4 4 0 0 1-5.657-5.656l4.243-4.243a4 4 0 0 1 5.657 0 1 1 0 0 1-1.414 1.414 2 2 0 0 0-2.829 0l-4.242 4.243a2 2 0 1 0 2.828 2.828l.674-.674a.78.78 0 0 1 .768-.178z" fill="#000"/></svg>
